X: 373
T: Shieryue xiaochang
%%abc-version 2.0
%%abcx-abcm2ps-target-version 5.9.1 (29 Sep 2008)
%%abc-creator hum2abc beta
%%abcx-conversion-date 2013/10/02 07:52:30
%%abc-edited-by Helmut Schaffrath
%%humdrum-veritas 533872515
%%humdrum-veritas-data 292194826
%%continueall 1
%%barnumbers 0
L: 1/8
M: 2/4
K: F
F2E D [I:setbarnb 1]| 
C2z2 | 
F G A G | 
F2z2 | 
F2G A | 
G2F2 | 
G F E D | 
C2z2 | 
F CF2 | 
E DC2 | 
F C F G | 
E DC2 | 
C> C G A | 
C2z2 | 
GG2A | 
C2F2 | 
G2G D | 
G G G D | 
C3D | 
C2z2 |]  



